Obsidian-SemiLight/actions/24s/roll.svg

<svg viewBox="0 0 24 24" xmlns="http://www.w3.org/2000/svg"><path d="m4 4v1 15h1 15v-1-15h-15zm1 1h14v14h-14zm2.5 1c-.831 0-1.5.669-1.5 1.5s.669 1.5 1.5 1.5 1.5-.669 1.5-1.5-.669-1.5-1.5-1.5zm9 0c-.831 0-1.5.669-1.5 1.5s.669 1.5 1.5 1.5 1.5-.669 1.5-1.5-.669-1.5-1.5-1.5zm-4.5 4.5c-.831 0-1.5.669-1.5 1.5s.669 1.5 1.5 1.5 1.5-.669 1.5-1.5-.669-1.5-1.5-1.5zm-4.5 4.5c-.831 0-1.5.669-1.5 1.5s.669 1.5 1.5 1.5 1.5-.669 1.5-1.5-.669-1.5-1.5-1.5zm9 0c-.831 0-1.5.669-1.5 1.5s.669 1.5 1.5 1.5 1.5-.669 1.5-1.5-.669-1.5-1.5-1.5z" fill="#4d4d4d"/></svg>

<svg xmlns="http://www.w3.org/2000/svg" viewBox="0 0 24 24">
  <defs id="defs3051">
    <style type="text/css" id="current-color-scheme">
      .ColorScheme-Text {
        color:#4d4d4d;
      }
      </style>
  </defs>
 <path style="fill:currentColor;fill-opacity:1;stroke:none" 
     d="M 4 4 L 4 5 L 4 20 L 5 20 L 20 20 L 20 19 L 20 4 L 5 4 L 4 4 z M 5 5 L 19 5 L 19 19 L 5 19 L 5 5 z M 7.5 6 C 6.669 6 6 6.669 6 7.5 C 6 8.331 6.669 9 7.5 9 C 8.331 9 9 8.331 9 7.5 C 9 6.669 8.331 6 7.5 6 z M 16.5 6 C 15.669 6 15 6.669 15 7.5 C 15 8.331 15.669 9 16.5 9 C 17.331 9 18 8.331 18 7.5 C 18 6.669 17.331 6 16.5 6 z M 12 10.5 C 11.169 10.5 10.5 11.169 10.5 12 C 10.5 12.831 11.169 13.5 12 13.5 C 12.831 13.5 13.5 12.831 13.5 12 C 13.5 11.169 12.831 10.5 12 10.5 z M 7.5 15 C 6.669 15 6 15.669 6 16.5 C 6 17.331 6.669 18 7.5 18 C 8.331 18 9 17.331 9 16.5 C 9 15.669 8.331 15 7.5 15 z M 16.5 15 C 15.669 15 15 15.669 15 16.5 C 15 17.331 15.669 18 16.5 18 C 17.331 18 18 17.331 18 16.5 C 18 15.669 17.331 15 16.5 15 z "
     class="ColorScheme-Text"
     />
</svg>
